X: 11
T: Jimmy's Favorite Jig
C: Jim Magill
R: jig
M: 6/8
L: 1/8
Z: abc by Bruce Osborne - bosborne@kos.net
K: G
|: d |
gbg gdB | G2 G GAB | cdc cBA | E3 E2 A |
f2 f fed | faf f2 e | ded ded | B3 B2 d |
gbg gdB | G2 G GAB | cdc cBA | E3 E2 A |
f2 f fed | faf f2 e | ded def |g3 g2 :|
|: D |
G2G GDB, | GDB, GDB, | G2 G GAB | c3 c2 A |
F2 F FED | FED FED | FGA cBA | G3 G2 :|
